icons/currency/icon_currency-eur-usd_xxl_black.svg

<?xml version="1.0" encoding="UTF-8"?>
<svg width="48px" height="48px" viewBox="0 0 48 48" version="1.1" xmlns="http://www.w3.org/2000/svg" xmlns:xlink="http://www.w3.org/1999/xlink">
    <!-- Generator: Sketch 49 (51002) - http://www.bohemiancoding.com/sketch -->
    <title>icon_currency-eur-usd_xxl_black</title>
    <desc>Created with Sketch.</desc>
    <defs></defs>
    <g id="set" stroke="none" stroke-width="1" fill="none" fill-rule="evenodd">
        <g id="mobile" transform="translate(-581.000000, -1125.000000)">
            <g id="Headings" transform="translate(64.000000, 77.000000)"></g>
            <g id="icon_tool_currency__xxl__white" transform="translate(581.000000, 1125.000000)">
                <g id="art">
                    <rect id="Rectangle-path" x="0" y="0" width="48" height="48"></rect>
                    <path d="M37.11,28 L37.11,26 C33.419,25.85 30.671,23.553 30.589,20.518 L31.642,20.518 C31.779,22.938 34.117,24.866 37.111,25.016 L37.111,16.266 L36.81,16.184 C32.681,15.186 31.081,13.778 31.081,11.166 C31.081,8.281 33.556,6.176 37.11,6.012 L37.11,4.166 L37.985,4.166 L37.985,6.012 C41.362,6.176 43.932,8.323 44.028,11.016 L42.975,11.016 C42.879,8.897 40.705,7.133 37.985,6.969 L37.985,15.405 L38.313,15.487 C42.743,16.54 44.411,17.77 44.411,20.627 C44.411,23.635 41.786,25.809 37.985,26 L37.985,28 L37.11,28 L37.11,28 Z M37.11,15.213 L37.11,6.969 C34.253,7.078 32.133,8.828 32.133,11.112 C32.134,13.23 33.501,14.352 37.11,15.213 L37.11,15.213 Z M37.985,16.457 L37.985,25.029 C41.075,24.92 43.358,23.074 43.358,20.681 C43.358,18.344 41.909,17.359 37.985,16.457 L37.985,16.457 Z" id="Shape" fill="#0B1F35"></path>
                    <path d="M6.23393694,29 C7.15535865,24.2405095 10.7157494,21 15.433365,21 C16.3307119,21 17.1820392,21.0761424 17.9996151,21.2366811 L17.8110986,22.2412006 C17.0660932,22.0949117 16.2789378,22.0228605 15.433365,22.0228605 C11.2903365,22.0228605 8.14436324,24.8037162 7.25436114,29 L15,29 L15,30 L7.08873245,30 C7.03011447,30.4847619 6.99996792,30.9853676 6.99996792,31.5 C6.99996792,32.0140614 7.03122666,32.5147201 7.09184818,33 L15,33 L15,34 L7.26258138,34 C8.17246318,38.1694006 11.3585291,40.9771395 15.433365,40.9771395 C16.2807514,40.9771395 16.991618,40.901956 17.795903,40.7307672 L17.9996151,41.7321777 C17.1452453,41.9140269 16.3663305,42 15.433365,42 C10.8174291,42 7.1844257,38.7594905 6.24016896,34 L3,34 L3,33 L6.08439587,33 C6.02867037,32.5129656 6,32.0124222 6,31.5 C6,30.9875778 6.02783004,30.4870344 6.08208703,30 L3,30 L3,29 L6.23393694,29 Z" id="Combined-Shape" fill="#0B1F35"></path>
                    <polygon id="Shape" fill="#0B1F35" opacity="0.4" points="37.4490059 46.5122429 26.8980117 36.1254456 27.6023411 35.4310964 37.4490059 45.1255059 47.2956706 35.4310964 48 36.1254456"></polygon>
                    <polygon id="Shape" fill="#0B1F35" opacity="0.4" points="20.3976589 13.5689036 10.5509941 3.8744941 0.704329418 13.5689036 6.9388939e-16 12.8745544 10.5509941 2.48775712 21.1019883 12.8745544"></polygon>
                </g>
            </g>
        </g>
    </g>
</svg>

<svg width="48" height="48" viewBox="0 0 48 48" xmlns="http://www.w3.org/2000/svg"><g fill="none" fill-rule="evenodd"><path d="M0 0h48v48H0z"/><path d="M37.11 28v-2c-3.691-.15-6.439-2.447-6.521-5.482h1.053c.137 2.42 2.475 4.348 5.469 4.498v-8.75l-.301-.082c-4.129-.998-5.729-2.406-5.729-5.018 0-2.885 2.475-4.99 6.029-5.154V4.166h.875v1.846c3.377.164 5.947 2.311 6.043 5.004h-1.053c-.096-2.119-2.27-3.883-4.99-4.047v8.436l.328.082c4.43 1.053 6.098 2.283 6.098 5.14 0 3.008-2.625 5.182-6.426 5.373v2h-.875zm0-12.787V6.969c-2.857.109-4.977 1.859-4.977 4.143.001 2.118 1.368 3.24 4.977 4.101zm.875 1.244v8.572c3.09-.109 5.373-1.955 5.373-4.348 0-2.337-1.449-3.322-5.373-4.224zM6.234 29c.921-4.76 4.482-8 9.2-8 .897 0 1.748.076 2.566.237l-.189 1.004a12.29 12.29 0 0 0-2.378-.218c-4.143 0-7.289 2.78-8.179 6.977H15v1H7.089a12.495 12.495 0 0 0 .003 3H15v1H7.263c.91 4.17 4.096 6.977 8.17 6.977.848 0 1.559-.075 2.363-.246L18 41.732c-.855.182-1.634.268-2.567.268-4.616 0-8.249-3.24-9.193-8H3v-1h3.084a13.547 13.547 0 0 1-.002-3H3v-1h3.234z" fill="#0B1F35"/><path fill="#0B1F35" opacity=".4" d="M37.449 46.512L26.898 36.125l.704-.694 9.847 9.695 9.847-9.695.704.694zM20.398 13.569L10.55 3.874.704 13.57 0 12.875 10.551 2.488l10.551 10.387z"/></g></svg>
